X:1
T:Title
%%score ( 1 2 ) ( 3 4 )
L:1/8
Q:1/4=92
M:6/8
K:Db
V:1 treble nm="Grand Piano, Soprano"
V:2 treble 
V:3 bass nm="Choir Pad, My Mother Is Praying for Me"
V:4 bass 
V:1
 [FA][FA][DF] [EG][FA][GB] | [Gc] [Fd]2- [Fd] [FA]2 | [FA][EG][=DF] [EG][GB][FA] | %3
w: By~Mrs.~Friolin~Suessey,~arr.~R.~E.~McNeill,~1901 * * * * *|||
 [EG] [DF]2- [DF]2- [DF]/ z/ | [FA][FA][DF] [FA][Gd][Gc] | [GB] [FA]2- [FA] [DF]2 | %6
w: |||
 [DF][CE][CA] [Ec][DB][DF] | [D=G] [CA]2- [CA]2- [CA]/ z/ | [FA][EG][DF] [EG][CE][DF] | %9
w: |||
 [EG] [GB]2- [GB] [FA]2 | [FA][GB][G=A] [GB][=GB][Gc] | [=Gd] [Ac]2- [Ac]2- [Ac]/ z/ | %12
w: |||
 [GA][Fd][Gc] [Fd][Ge][Gd] | [GB] [FA]2- [FA] [Fd]2 | [GB][FA]<[DF] D[CE]<[CF] | %15
w: |||
 [CE] D2- D2- D/ z/ | [FA][GA][Gc] [GB][CA][CE] | [C_F] [D=F]2- [DF]2- [DF]/ z/ | %18
w: |||
 [FA][GB]>[Gc] [Gd][=Gd][Gc] | [=GB] A2- A2- A/ z/ | [CG][DF][CE] [DF][EG][DF] | %21
w: |||
 [EG][FA][Fd] [Fd] [GB]2 | [GB][FA]<[DF] D[CE]<[CF] | z D2- D3- | D6 |] %25
w: ||||
V:2
 x6 | x6 | x6 | x6 | x6 | x6 | x6 | x6 | x6 | x6 | x6 | x6 | x6 | x6 | x6 | x6 | x6 | x6 | x6 | %19
 x6 | x6 | x6 | x6 | .[CE]3 B, A,2- | A,6 |] %25
V:3
 [D,D][D,D][D,A,] [D,A,][D,D]A, | A, [D,A,]2- [D,A,] [D,D]2 | %2
 A,[A,,A,][A,,A,] [A,,A,][A,,A,][A,,A,] | [A,,A,] [D,A,]2- [D,A,]2- [D,A,]/ z/ | %4
 [D,D][D,D][D,A,] [D,D][G,B,][G,B,] | [G,D] [D,D]2- [D,D] [D,A,]2 | %6
 [D,A,][E,A,]E, E,[E,=G,][E,A,] | [E,B,] [A,,E,A,]2- [A,,E,A,]2- [A,,E,A,]/ z/ | %8
 A,A,A, A,[A,,A,][A,,A,] | A, [D,D]2- [D,D] [D,D]2 | [D,D][G,D][G,C] [G,D][E,C][E,C] | %11
 [E,C] [A,E]2- [A,E]2- [A,E]/ z/ | A,[D,A,][D,A,] [D,A,][G,B,][G,B,] | [G,D] [D,D]2- [D,D] [D,D]2 | %14
 [G,D][A,D]<A, [A,,F,][A,,G,]<[A,,A,] | [A,,G,] [D,F,]2- [D,F,]2- [D,F,]/ z/ | %16
 [D,D][A,C]A, A,[A,,A,][A,,A,] | [A,,A,] [D,A,]2- [D,A,]2- [D,A,]/ z/ | %18
 [D,D][G,D]>[G,C] [G,B,][E,E][E,E] | [E,D] [A,C]2- [A,C]2- [A,C]/ z/ | %20
 A,[D,A,][D,A,] [D,A,][A,,A,][A,,A,] | A,[D,D][D,A,] [D,D] [G,D]2 | %22
 [G,D][A,D]<A, [A,,F,][A,,G,]<[A,,A,] | z F,2 z3 | z6 |] %25
V:4
 x6 | x6 | x6 | x6 | x6 | x6 | x6 | x6 | x6 | x6 | x6 | x6 | x6 | x6 | x6 | x6 | x6 | x6 | x6 | %19
 x6 | x6 | x6 | x6 | [A,,G,] D,2- [D,-G,] [D,F,]2- | [D,F,]6 |] %25

